X: 2921
T: Barrack Hill
R: slide
M: 12/8
K: Adorian
|:e2A ABd e2d B2d|e2A B2A G2A B2d|
e2A ABd e2d B2d|d2B GAB A3:|
|:e3 efg a2f g2e|d2B d2g d2B d2g|
e3 efg a2f g2e|d2B GAB A3:|

